X: 13
T: Boys Of The Lough, The
Z: John E Roche
S: https://thesession.org/tunes/343#setting46914
R: reel
M: 4/4
L: 1/8
K: Dmaj
dB|AD (3FED A2 Bc|d2 fd ecdB|A2 FA BFAF|EDEF E2 dB|
AD (3FED A2 Bc|d2 fd ecdB|A2 FA BdAF|EDEF D2||
de|fa{b}ag f2 fe|d2 fd ecdB|A2 FA BGAF|EDEF E2 de|
faag f2 fe|d2 fd ecdB|A2 FA BdAF|EDEF D2||

